X:534
T:Snouts And Ears 
C:Joe Buchanan's Scottish Tome - Page 062.3
I:062 3
Z:Carl Allison
R:Reel
L:1/8
K:A
((3efg) | "A"aA "A/E"A>B | "A"Ae "A/C#"ab/a/ | "E"ge "E/B"e/f/g/a/ | "Bm"be "E7"e(f/g/) |
"A/C#"a/g/f/e/ "D"dc | "Bm"Be "E"e/f/e/d/ | "B7"cA "E7"BA/B/ |  "A"(c"D"A) "A/G#"A2 :|
e2 | "A"cA "A/E"A>B | "A"ce "F#/A#"e(f/e/) | "Bm"dB "Bm"B>"F#"c | "Bm"da "E7"a/f/e/d/ |
"A"cA "A/E"A>B | "A"ce "F#/A#"ef/e/ | "Bm"dB "E7"a/f/e/d/ | "A"c"D"A "A/C#"A2 :|

